X: 43126
T: Wink And She'll Follow You
R: slip jig
M: 9/8
K: Amixolydian
A3 edB efg|A3 edB d2B|A3 edB efg|fed edB d2B|
A3 edB efg|A3 edB d2B|A3 edB efg|fed edB d2e|
fef afd efg|fef afd g3|fef afd efg|fed edB d2e|
fef afd efg|fef afd g3|fef afd efg|fed edB dBG|

